svg/u1f462.svg

<svg viewBox="0 0 128 128" xmlns="http://www.w3.org/2000/svg">
  <g>
    <path d="M42.04,114.98c3.78-3.56,7.55-7.12,11.33-10.68c-2.58-1.62-5.48-2.72-8.48-3.22 c-1.25-0.21-2.58-0.3-3.73,0.21c-1.89,0.84-2.76,3.02-3.24,5.03c-0.52,2.19-0.79,4.45-0.8,6.7" fill="#37474F"/>
    <g>
      <path d="M25.61,92.32l1.24,15c0.05,0.81,0.46,1.57,1.14,2.02c5.19,3.51,10.22,5.26,12.72,5.98 c0.83,0.24,1.64-0.39,1.64-1.25V101.9L25.61,92.32z" fill="#A65F3E"/>
      <path d="M31.73,68.61c-0.93,6.07-8.31,15.7-4.8,25.07c1.91,5.1,14.83,8.85,22.42,13.99 c5.48,3.71,16.03,12.89,23.46,14.91c7.68,2.1,11.85,1.67,24.23-1.02c12.4-2.69,12.55-10.77,12.55-10.77s-0.38-8.32-3.36-10.79 c-5.04-4.19-10.42-3.58-14.59-5.78c-5.62-2.96-13.09-13.08-18.7-24.29s2.19-56.31,2.19-56.31L30.1,7.6 C30.1,7.6,32.66,62.54,31.73,68.61z" fill="#DE7340"/>
      <path d="M109.59,110.8c0,0-4.45,4.59-13.4,6.81c0,0-12,3.88-22.31,1.07c-4.78-1.3-11.86-6.64-17.03-10.54 c-2.01-1.51-3.74-2.82-5.22-3.82c-3.08-2.08-6.76-3.92-10.38-5.6c-14.62-6.81-15.17-9.95-15.25-10.92c0,0-1.44,1.94,0,5.72 c1.93,5.09,15.77,9.01,23.37,14.15c5.48,3.71,16.2,12.36,23.46,14.91c8.38,2.95,19.63,0.55,23.18-0.48 c11.66-3.38,13.96-6.05,14.57-8.74C111.01,111.35,109.59,110.8,109.59,110.8z" fill="#A65F3E"/>
    </g>
    <path d="M40.06,77.44c-0.92,1.77-1.84,3.55-2.76,5.32c-0.38,0.73-0.78,1.49-1.38,2.01s-1.49,0.76-2.16,0.35 c-0.82-0.5-1.03-1.68-1.04-2.71c-0.06-3.83,1.06-10.26,4.21-12.61c1.49-1.11,3.21-0.6,4.14,1.12 C42.2,73.05,41.05,75.54,40.06,77.44z" fill="#F29657"/>
    <path d="M85.87,114.45c-4.8-1.19-3.33-4.89,0.36-5.72c3.15-0.71,5.65,0.56,11.21-1.21 c3.39-1.08,4.84,1.78,2.83,3.26C95.75,114.1,88.9,115.2,85.87,114.45z" fill="#F29657"/>
    <path d="M31.09,6.33c1.5-2.35,10.13-2.73,22.34-0.99S73.61,9,74.41,12.44c0.88,3.78-8.3,3.7-19.28,3.05 c-5.33-0.32-6.9,3.17-6.9,3.17s-1.25-4.37-3.59-4.87C35.8,11.9,29.28,9.17,31.09,6.33z" fill="#263238"/>
    <path d="M46.06,79.46l-1.65-0.53c-0.6-0.19-0.94-0.83-0.76-1.43c0.62-2.07,1.95-6.63,2.52-9.39 c0.89-4.31,0.9-46.14,0.07-49.45l3.99,0c0.93,7.47,0.58,45.14-0.07,49.98c-0.38,2.84-1.93,7.87-2.65,10.08 C47.32,79.32,46.67,79.65,46.06,79.46z" fill="#874D36"/>
    <g>
      <path d="M40.97,4c-4.65,0-8.89,0.56-10.55,2.4c-1.48,2.33,2.5,4.18,4.07,4.77 c8.55,3.21,11.01,2.37,11.75,7.47c0.13,0.91,0.9,1.47,1.84,1.47c0.29,0,0.6-0.05,0.91-0.17c2.54-0.92,1.46-3.85,7.79-3.85 c0.34,0,0.71,0.01,1.09,0.03c3.04,0.14,6.08,0.34,8.75,0.34c5,0,8.68-0.69,8.5-3.76c-0.27-4.81-9.1-5.99-21.7-7.78 C50.17,4.51,45.39,4,40.97,4L40.97,4z M48.56,16.84c0,0-0.82-3.04-3.79-4.24c-1.89-0.76-10.09-3.6-11.09-4.54 c-1.88-1.78,2.39-1.95,7.34-1.96c0.02,0,0.04,0,0.06,0c12.91,0,29.35,2.57,31.5,5.53c0.78,1.07-1.2,2.86-6.19,2.86 c-0.43,0-0.88-0.01-1.36-0.04c-3.07-0.18-6.14-0.45-9.22-0.58c-0.28-0.01-0.55-0.02-0.8-0.02 C49.11,13.86,48.56,16.84,48.56,16.84L48.56,16.84z" fill="#FFB685"/>
      <polygon points="39.92,4.26 39.92,4.26 39.92,4.26 " fill="#F2AA7B"/>
    </g>
    <polygon points="46.65,25.02 46.56,22.62 50.27,19.08 50.44,21.31 " fill="#3E2723"/>
    <path d="M49.5,20.79l-4.14,3.79c-0.82,0.75-2.12,0.51-2.62-0.48l-1.5-2.98c-0.52-1.03,0.14-2.26,1.28-2.4 l5.82-0.54c0.64-0.06,1.25,0.29,1.52,0.88l0,0C50.13,19.64,49.99,20.35,49.5,20.79z" fill="#874D36"/>
  </g>
</svg>

<svg viewBox="0 0 128 128" xmlns="http://www.w3.org/2000/svg">
  <defs/>
  <path d="M42.04,114.98 C45.82,111.42 49.59,107.86 53.37,104.3 C50.79,102.68 47.89,101.58 44.89,101.08 C43.64,100.87 42.31,100.78 41.16,101.29 C39.27,102.13 38.4,104.31 37.92,106.32 C37.4,108.51 37.13,110.77 37.12,113.02" fill="#37474F"/>
  <path d="M25.61,92.32 L26.85,107.32 C26.9,108.13 27.31,108.89 27.99,109.34 C33.18,112.85 38.21,114.6 40.71,115.32 C41.54,115.56 42.35,114.93 42.35,114.07 L42.35,101.9 L25.61,92.32 Z" fill="#A65F3E"/>
  <path d="M31.73,68.61 C30.8,74.68 23.42,84.31 26.93,93.68 C28.84,98.78 41.76,102.53 49.35,107.67 C54.83,111.38 65.38,120.56 72.81,122.58 C80.49,124.68 84.66,124.25 97.04,121.56 C109.44,118.87 109.59,110.79 109.59,110.79 C109.59,110.79 109.21,102.47 106.23,100 C101.19,95.81 95.81,96.42 91.64,94.22 C86.02,91.26 78.55,81.14 72.94,69.93 C67.33,58.72 75.13,13.62 75.13,13.62 L30.1,7.6 C30.1,7.6 32.66,62.54 31.73,68.61 Z" fill="#DE7340"/>
  <path d="M109.59,110.8 C109.59,110.8 105.14,115.39 96.19,117.61 C96.19,117.61 84.19,121.49 73.88,118.68 C69.1,117.38 62.02,112.04 56.85,108.14 C54.84,106.63 53.11,105.32 51.63,104.32 C48.55,102.24 44.87,100.4 41.25,98.72 C26.63,91.91 26.08,88.77 26,87.8 C26,87.8 24.56,89.74 26,93.52 C27.93,98.61 41.77,102.53 49.37,107.67 C54.85,111.38 65.57,120.03 72.83,122.58 C81.21,125.53 92.46,123.13 96.01,122.1 C107.67,118.72 109.97,116.05 110.58,113.36 C111.01,111.35 109.59,110.8 109.59,110.8 Z" fill="#A65F3E"/>
  <path d="M40.06,77.44 C39.14,79.21 38.22,80.99 37.3,82.76 C36.92,83.49 36.52,84.25 35.92,84.77 C35.32,85.29 34.43,85.53 33.76,85.12 C32.94,84.62 32.73,83.44 32.72,82.41 C32.66,78.58 33.78,72.15 36.93,69.8 C38.42,68.69 40.14,69.2 41.07,70.92 C42.2,73.05 41.05,75.54 40.06,77.44 Z" fill="#F29657"/>
  <path d="M85.87,114.45 C81.07,113.26 82.54,109.56 86.23,108.73 C89.38,108.02 91.88,109.29 97.44,107.52 C100.83,106.44 102.28,109.3 100.27,110.78 C95.75,114.1 88.9,115.2 85.87,114.45 Z" fill="#F29657"/>
  <path d="M31.09,6.33 C32.59,3.98 41.22,3.6 53.43,5.34 C65.64,7.08 73.61,9 74.41,12.44 C75.29,16.22 66.11,16.14 55.13,15.49 C49.8,15.17 48.23,18.66 48.23,18.66 C48.23,18.66 46.98,14.29 44.64,13.79 C35.8,11.9 29.28,9.17 31.09,6.33 Z" fill="#263238"/>
  <path d="M46.06,79.46 L44.41,78.93 C43.81,78.74 43.47,78.1 43.65,77.5 C44.27,75.43 45.6,70.87 46.17,68.11 C47.06,63.8 47.07,21.97 46.24,18.66 L50.23,18.66 C51.16,26.13 50.81,63.8 50.16,68.64 C49.78,71.48 48.23,76.51 47.51,78.72 C47.32,79.32 46.67,79.65 46.06,79.46 Z" fill="#874D36"/>
  <path d="M40.97,4 C36.32,4 32.08,4.56 30.42,6.4 C28.94,8.73 32.92,10.58 34.49,11.17 C43.04,14.38 45.5,13.54 46.24,18.64 C46.37,19.55 47.14,20.11 48.08,20.11 C48.37,20.11 48.68,20.06 48.99,19.94 C51.53,19.02 50.45,16.09 56.78,16.09 C57.12,16.09 57.49,16.1 57.87,16.12 C60.91,16.26 63.95,16.46 66.62,16.46 C71.62,16.46 75.3,15.77 75.12,12.7 C74.85,7.89 66.02,6.71 53.42,4.92 C50.17,4.51 45.39,4 40.97,4 L40.97,4 Z M48.56,16.84 C48.56,16.84 47.74,13.8 44.77,12.6 C42.88,11.84 34.68,9 33.68,8.06 C31.8,6.28 36.07,6.11 41.02,6.1 C41.04,6.1 41.06,6.1 41.08,6.1 C53.99,6.1 70.43,8.67 72.58,11.63 C73.36,12.7 71.38,14.49 66.39,14.49 C65.96,14.49 65.51,14.48 65.03,14.45 C61.96,14.27 58.89,14 55.81,13.87 C55.53,13.86 55.26,13.85 55.01,13.85 C49.11,13.86 48.56,16.84 48.56,16.84 L48.56,16.84 Z" fill="#FFB685"/>
  <path d="M46.65,25.02 L46.56,22.62 L50.27,19.08 L50.44,21.31 Z" fill="#3E2723"/>
  <path d="M49.5,20.79 L45.36,24.58 C44.54,25.33 43.24,25.09 42.74,24.1 L41.24,21.12 C40.72,20.09 41.38,18.86 42.52,18.72 L48.34,18.18 C48.98,18.12 49.59,18.47 49.86,19.06 L49.86,19.06 C50.13,19.64 49.99,20.35 49.5,20.79 Z" fill="#874D36"/>
</svg>
